assets/img/braze_icons/cursor-02.svg

<svg fill="none" height="24" viewBox="0 0 24 24" width="24" xmlns="http://www.w3.org/2000/svg"><path d="m4.90043 2.61991c-.22531-.08093-.45392-.16305-.64695-.21321-.18312-.0476-.53665-.12649-.9157.00477-.43455.15049-.77606.492-.92655.92655-.13127.37905-.05237.73258-.00478.9157.05017.19303.13228.42164.21321.64696l5.72891 15.95922c.10057.2803.19701.549.2922.7561.08041.175.26328.5577.66088.774.43476.2366.95825.2435 1.39905.0184.4032-.2059.596-.5836.681-.7564.1006-.2045.204-.4707.3119-.7482l2.5788-6.6311 6.6312-2.5788c.2775-.1079.5436-.2114.7481-.3119.1728-.085.5506-.2779.7564-.681.2251-.4408.2182-.96429-.0184-1.39906-.2163-.3976-.599-.58047-.774-.66088-.207-.09518-.4758-.19162-.756-.29219z" fill="#801ed7"/></svg>

<svg width="24" height="24" viewBox="0 0 24 24" fill="none" xmlns="http://www.w3.org/2000/svg">
<path d="M4.90043 2.61991C4.67512 2.53898 4.44651 2.45686 4.25348 2.4067C4.07036 2.3591 3.71683 2.28021 3.33778 2.41147C2.90323 2.56196 2.56172 2.90347 2.41123 3.33802C2.27996 3.71707 2.35886 4.0706 2.40645 4.25372C2.45662 4.44675 2.53873 4.67536 2.61966 4.90068L8.34857 20.8599C8.44914 21.1402 8.54558 21.4089 8.64077 21.616C8.72118 21.791 8.90405 22.1737 9.30165 22.39C9.73641 22.6266 10.2599 22.6335 10.7007 22.4084C11.1039 22.2025 11.2967 21.8248 11.3817 21.652C11.4823 21.4475 11.5857 21.1813 11.6936 20.9038L14.2724 14.2727L20.9036 11.6939C21.1811 11.586 21.4472 11.4825 21.6517 11.382C21.8245 11.297 22.2023 11.1041 22.4081 10.701C22.6332 10.2602 22.6263 9.73671 22.3897 9.30194C22.1734 8.90434 21.7907 8.72147 21.6157 8.64106C21.4087 8.54588 21.1399 8.44944 20.8597 8.34887L4.90043 2.61991Z" fill="#801ED7"/>
</svg>
